svg/UnitedNations-Flags/flag-qa.svg

<svg height="256" viewBox="0 0 504 198" width="256" xmlns="http://www.w3.org/2000/svg"><path fill="#70193d" d="m0 0h504v198h-504z"/><path d="m0 0h144l36 11-36 11 36 11-36 11 36 11-36 11 36 11-36 11 36 11-36 11 36 11-36 11 36 11-36 11 36 11-36 11 36 11-36 11h-144v-198" fill="#fff"/></svg>

<?xml version="1.0" encoding="UTF-8" standalone="no"?>
<svg height="256" id="svg3260" inkscape:output_extension="org.inkscape.output.svg.inkscape" inkscape:version="0.46" sodipodi:docname="Flag_of_Qatar.svg" sodipodi:version="0.32" version="1.0" viewBox="0 0 504 198" width="256" xmlns="http://www.w3.org/2000/svg" xmlns:cc="http://creativecommons.org/ns#" xmlns:dc="http://purl.org/dc/elements/1.1/" xmlns:inkscape="http://www.inkscape.org/namespaces/inkscape" xmlns:rdf="http://www.w3.org/1999/02/22-rdf-syntax-ns#" xmlns:sodipodi="http://sodipodi.sourceforge.net/DTD/sodipodi-0.dtd" xmlns:svg="http://www.w3.org/2000/svg">
  <metadata>
    <rdf:RDF xmlns:cc="http://web.resource.org/cc/" xmlns:dc="http://purl.org/dc/elements/1.1/" xmlns:rdf="http://www.w3.org/1999/02/22-rdf-syntax-ns#">
      <cc:Work rdf:about="">
        <dc:title></dc:title>
        <dc:description></dc:description>
        <dc:subject>
          <rdf:Bag>
            <rdf:li>unsorted</rdf:li>
          </rdf:Bag>
        </dc:subject>
        <dc:publisher>
          <cc:Agent rdf:about="http://www.openclipart.org/">
            <dc:title>Open Clip Art Library, Source: Wikimedia Commons, Source: Wikimedia Commons, Source: Wikimedia Commons, Source: Wikimedia Commons</dc:title>
          </cc:Agent>
        </dc:publisher>
        <dc:creator>
          <cc:Agent>
            <dc:title></dc:title>
          </cc:Agent>
        </dc:creator>
        <dc:rights>
          <cc:Agent>
            <dc:title></dc:title>
          </cc:Agent>
        </dc:rights>
        <dc:date></dc:date>
        <dc:format>image/svg+xml</dc:format>
        <dc:type rdf:resource="http://purl.org/dc/dcmitype/StillImage"/>
        <cc:license rdf:resource="http://en.wikipedia.org/wiki/Public_domain"/>
        <dc:language>en</dc:language>
      </cc:Work>
    </rdf:RDF>
  </metadata>
  <defs id="defs3269">
    <inkscape:perspective id="perspective3273" inkscape:persp3d-origin="378 : 99 : 1" inkscape:vp_x="0 : 148.5 : 1" inkscape:vp_y="0 : 1000 : 0" inkscape:vp_z="756 : 148.5 : 1" sodipodi:type="inkscape:persp3d"/>
  </defs>
  <sodipodi:namedview bordercolor="#666666" borderopacity="1.0" gridtolerance="10.0" guidetolerance="10.0" id="base" inkscape:current-layer="svg3260" inkscape:cx="378" inkscape:cy="148.5" inkscape:pageopacity="0.0" inkscape:pageshadow="2" inkscape:window-height="811" inkscape:window-width="897" inkscape:window-x="133" inkscape:window-y="85" inkscape:zoom="0.73941799" objecttolerance="10.0" pagecolor="#ffffff" showgrid="false"/>
  <desc id="desc3262">Flag of Qatar</desc>
  <rect height="198" id="rect3264" style="fill:#70193d" width="504" x="0" y="0"/>
  <path d="M 0,0 L 144,0 L 180,11 L 144,22 L 180,33 L 144,44 L 180,55 L 144,66 L 180,77 L 144,88 L 180,99 L 144,110 L 180,121 L 144,132 L 180,143 L 144,154 L 180,165 L 144,176 L 180,187 L 144,198 L 0,198 L 0,0 z" id="path3266" style="fill:#ffffff"/>
</svg>
